src/Pure/16/symbolic/actions/mail-move-symbolic.svg

<?xml version="1.0" encoding="UTF-8" standalone="no"?>
<svg
   height="16"
   width="16.002"
   version="1.1"
   id="svg1"
   sodipodi:docname="mail-move-symbolic.svg"
   inkscape:version="1.4.2 (ebf0e940d0, 2025-05-08)"
   xmlns:inkscape="http://www.inkscape.org/namespaces/inkscape"
   xmlns:sodipodi="http://sodipodi.sourceforge.net/DTD/sodipodi-0.dtd"
   xmlns="http://www.w3.org/2000/svg"
   xmlns:svg="http://www.w3.org/2000/svg">
  <defs
      id="defs1">
      <style
          id="current-color-scheme"
          type="text/css">
          .ColorScheme-Text { color:#363636; }
      </style>
  </defs>
  <sodipodi:namedview
     id="namedview1"
     pagecolor="#ffffff"
     bordercolor="#000000"
     borderopacity="0.25"
     inkscape:showpageshadow="2"
     inkscape:pageopacity="0.0"
     inkscape:pagecheckerboard="0"
     inkscape:deskcolor="#d1d1d1"
     inkscape:zoom="49.6875"
     inkscape:cx="8"
     inkscape:cy="8"
     inkscape:window-width="1920"
     inkscape:window-height="1010"
     inkscape:window-x="0"
     inkscape:window-y="0"
     inkscape:window-maximized="1"
     inkscape:current-layer="svg1" />
  <path
     id="path1"
     style="fill:currentColor"
     class="ColorScheme-Text"
     d="M 0 2.0527344 L 0 3.0527344 L 1 3.0527344 L 1 2.0527344 L 0 2.0527344 z M 2 2.0527344 L 2 3.0527344 L 3 3.0527344 L 3 2.0527344 L 2 2.0527344 z M 4 2.0527344 L 4 3.0527344 L 5 3.0527344 L 5 2.0527344 L 4 2.0527344 z M 6 2.0527344 L 6 3.0527344 L 7 3.0527344 L 7 2.0527344 L 6 2.0527344 z M 8 2.0527344 L 8 3.0527344 L 9 3.0527344 L 9 2.0527344 L 8 2.0527344 z M 10 2.0527344 L 10 3.0527344 L 11 3.0527344 L 11 2.0527344 L 10 2.0527344 z M 12 2.0527344 L 12 3.0527344 L 13 3.0527344 L 13 2.0527344 L 12 2.0527344 z M 0 4.0527344 L 0 5.0527344 L 1 5.0527344 L 1 4.0527344 L 0 4.0527344 z M 3.5 4.0527344 C 2.67 4.0527344 2 4.7217344 2 5.5527344 L 2 12.552734 C 2 13.383734 2.67 14.052734 3.5 14.052734 L 14.5 14.052734 C 15.331 14.052734 16 13.383734 16 12.552734 L 16 5.5527344 C 16 4.7217344 15.331 4.0527344 14.5 4.0527344 L 3.5 4.0527344 z M 3.9746094 5.0527344 L 14.023438 5.0527344 L 9 8.9238281 L 3.9746094 5.0527344 z M 15 5.5644531 L 15 12.552734 C 15 12.829734 14.777 13.052734 14.5 13.052734 L 3.5 13.052734 A 0.499 0.499 0 0 1 3 12.552734 L 3 5.5664062 L 8.6914062 9.9472656 C 8.7064063 9.9602656 8.7261875 9.9646094 8.7421875 9.9746094 A 0.56 0.56 0 0 0 8.9121094 10.037109 C 8.9421094 10.043109 8.97 10.044922 9 10.044922 C 9.03 10.044922 9.0588906 10.043109 9.0878906 10.037109 A 0.49 0.49 0 0 0 9.203125 10.001953 C 9.223125 9.9929531 9.2398125 9.9856094 9.2578125 9.9746094 C 9.2748125 9.9646094 9.2935937 9.9602656 9.3085938 9.9472656 L 15 5.5644531 z M 0 6.0527344 L 0 7.0527344 L 1 7.0527344 L 1 6.0527344 L 0 6.0527344 z M 0 8.0527344 L 0 9.0527344 L 1 9.0527344 L 1 8.0527344 L 0 8.0527344 z M 0 10.052734 L 0 10.552734 C 0 10.729734 0.035796875 10.895734 0.091796875 11.052734 L 1 11.052734 L 1 10.052734 L 0 10.052734 z " />
</svg>

<svg height="16" width="16.002" xmlns="http://www.w3.org/2000/svg"><g color="#363636" fill="#363636"><path d="M3.5 4.052c-.83 0-1.5.669-1.5 1.5v7c0 .831.67 1.5 1.5 1.5h11c.831 0 1.5-.669 1.5-1.5v-7c0-.831-.669-1.5-1.5-1.5zm.475 1h10.049L9 8.923zM15 5.564v6.988c0 .277-.223.5-.5.5h-11a.499.499 0 0 1-.5-.5V5.566l5.692 4.382c.015.013.034.016.05.026a.56.56 0 0 0 .17.064c.03.006.058.006.088.006.03 0 .059 0 .088-.006a.49.49 0 0 0 .115-.037c.02-.009.037-.016.055-.027.017-.01.035-.013.05-.026zM0 2.052v1h1v-1zm2 0v1h1v-1zm2 0v1h1v-1zm2 0v1h1v-1zm2 0v1h1v-1zm2 0v1h1v-1zm2 0v1h1v-1zm-12 2v1h1v-1zm0 2v1h1v-1zm0 2v1h1v-1zm0 2v.5c0 .177.036.343.092.5H1v-1z" overflow="visible" style="isolation:auto;mix-blend-mode:normal;marker:none"/></g></svg>
